X:10
T:White Cockade,The. WHG.010
R:scots measure
S:W.H.Giles MS,Bampton,Oxfordshire,1839p10
O:England
H:donated by Mrs W.R.Kettlewell to VWML,Apr 1927.
A:Bampton, Oxfordshire
N:End of tune marked “Da Capo”.
Z:PJHeadford – VMP 2009
M:C
L:1/8
Q:1/4=180
K:G
|:GA|B2B2 B2AG|B2B2 B2ge|d2B2 B2AG|F2A2 A2GA|
B2B2 B2AG|B2d2 g2z2|(bagf) (efge)|d2c2 B2:|
Bc|d2B2 g2B2|d2B2 B2(Bc)|d2B2 g2(fg)|a2A2 A2GA|
B2B2 B2AG|B2d2 g2z2|(bagf) (efgf)|+D.C.+d2B2 B2|]

